X:1
T:Moose the mooche
M:4/4
L:1/8
C:Charlie Parker
Q:1/4=224
K:Bb
%%text (medium/up)
%%vskip 20
% A %%%%%%%%%%%%%%%%%%%%%%%%%%%%%%%%%%%%
P:A
"Bb6"F2zf- fde2 | "Cm7"zB (3GEC "F7"BG^cd | "Bbm6"F2zd- dBc2 | "Cm7"zFFF "F7"cF2G |
"Fm7"_AAG_G "Bb7"F2zc | "Eb6"zB zG ^cdcd | "Bb6"F2zB ded=A- | "F7"AB (3GFD FD_AF ||
% A %%%%%%%%%%%%%%%%%%%%%%%%%%%%%%%%%%%%
P:A
"Bb6"z3f- fde2 | "Cm7"zB (3GEC "Ebm6"B_GEC | "Bb6"F2zd- dBc2 | "Cm7"zCEG "F7"cBd_A- |
"Fm7"A2EC "Bb7"_CG zD | "Eb6"FD (3B,/C/B,/G, "Ebm6"_G,_D2B, | "Cm7"C2zE zGF2 | "F7"zA zc B^DE=E ||
% B %%%%%%%%%%%%%%%%%%%%%%%%%%%%%%%%%%%%
P:B
"D7"z3A zG z^F | =EC^CD- D2zE | "G7"AFGA =ed=BA | z3G zA zG |
"C7"_B2z D AG=E2 | DCDA-A3G | "F7"F2zD ED^CD | E2z_A z_G z=E ||
% A %%%%%%%%%%%%%%%%%%%%%%%%%%%%%%%%%%%%
P:A
"Bb6"F2zf- fde2 | "Cm7"zB (3GEC "F7"BG^cd | "Bb6"F2zd- dBc2 | "Cm7"zFFF "F7"cF2G |
"Fm7"_AAG_G "Bb7"F2zc | "Eb6"zB zG ^cdcd | "Bb/F"F2z_d- "F7"(3d/e/d/B c2 | "Bb6"zB- (3B/c/B/G B2 z2 |]
